X: 1798
T: Ar Vuhez ?
R: mazurka
M: 3/4
K: Aminor
|:E AB|c3d Bc|A2 G2 AB|cB A/B/c de|B3E AB|
c3d Bc|A2 G2 AB|c2 Ac de|1 A3:|2 AE A||
|:B cd|e3f d2|c3d e/d/c|BA Bd cB|c2 AB cd|
ed ef d2|c3d ec|BA Bd cB|1 A2 A:|2 A3||

